static/logos/loom-wordmark-color.svg

<svg width="100" height="30" viewBox="0 0 100 30" fill="none" xmlns="http://www.w3.org/2000/svg">
<g clip-path="url(#clip0_1_2110)">
<path d="M30.01 13.43H20.868L28.785 8.86L27.215 6.14L19.297 10.71L23.867 2.795L21.147 1.225L16.576 9.138V0H13.434V9.139L8.863 1.225L6.142 2.795L10.712 10.708L2.796 6.14L1.225 8.86L9.142 13.43H0V16.571H9.141L1.225 21.141L2.795 23.861L10.713 19.291L6.142 27.206L8.862 28.776L13.434 20.862V30H16.576V20.666L21.231 28.726L23.782 27.254L19.126 19.192L27.213 23.86L28.784 21.14L20.868 16.57H30.009V13.43H30.01ZM15.005 19.27C14.4441 19.2701 13.8887 19.1597 13.3705 18.9451C12.8523 18.7305 12.3814 18.416 11.9848 18.0194C11.5882 17.6229 11.2735 17.1521 11.0588 16.6339C10.8441 16.1157 10.7336 15.5604 10.7335 14.9995C10.7334 14.4386 10.8438 13.8832 11.0584 13.365C11.273 12.8468 11.5875 12.3759 11.9841 11.9793C12.3806 11.5827 12.8514 11.268 13.3696 11.0533C13.8878 10.8386 14.4431 10.7281 15.004 10.728C16.1367 10.7279 17.2231 11.1777 18.0242 11.9786C18.8253 12.7795 19.2754 13.8658 19.2755 14.9985C19.2756 16.1312 18.8258 17.2176 18.0249 18.0187C17.224 18.8198 16.1377 19.2699 15.005 19.27Z" fill="#5753F3"/>
<path d="M38.1094 25.9731V4.0271H42.1374V25.9731H38.1094ZM76.7424 11.0591H80.5884V12.8791C81.4064 11.4241 83.3154 10.6351 84.9504 10.6351C86.9804 10.6351 88.6154 11.5151 89.3724 13.1201C90.5524 11.3001 92.1284 10.6351 94.0974 10.6351C96.8534 10.6351 99.4874 12.3021 99.4874 16.3031V25.9731H95.5814V17.1221C95.5814 15.5151 94.7934 14.3021 92.9454 14.3021C91.2184 14.3021 90.1884 15.6371 90.1884 17.2441V25.9741H86.1924V17.1221C86.1924 15.5151 85.3744 14.3021 83.5564 14.3021C81.7994 14.3021 80.7694 15.6071 80.7694 17.2441V25.9741H76.7424V11.0591ZM51.2404 26.4051C46.7024 26.4051 43.4164 23.0381 43.4164 18.5161C43.4164 14.0661 46.6924 10.6201 51.2404 10.6201C55.8104 10.6201 59.0644 14.0981 59.0644 18.5161C59.0644 23.0061 55.7764 26.4051 51.2404 26.4051ZM51.2404 14.2701C50.1148 14.2717 49.0358 14.7197 48.2401 15.516C47.4445 16.3122 46.9972 17.3915 46.9964 18.5171C46.9972 19.6427 47.4445 20.722 48.2401 21.5182C49.0358 22.3145 50.1148 22.7625 51.2404 22.7641C52.3658 22.7622 53.4446 22.3141 54.24 21.5179C55.0354 20.7217 55.4826 19.6425 55.4834 18.5171C55.4826 17.3917 55.0354 16.3125 54.24 15.5163C53.4446 14.7201 52.3658 14.272 51.2404 14.2701ZM67.6674 26.4051C63.1294 26.4051 59.8434 23.0381 59.8434 18.5161C59.8434 14.0661 63.1194 10.6201 67.6674 10.6201C72.2374 10.6201 75.4914 14.0981 75.4914 18.5161C75.4914 23.0061 72.2014 26.4051 67.6674 26.4051ZM67.6674 14.2191C66.5289 14.221 65.4375 14.6743 64.6328 15.4796C63.828 16.2849 63.3754 17.3766 63.3744 18.5151C63.3754 19.6536 63.828 20.7453 64.6328 21.5506C65.4375 22.3559 66.5289 22.8092 67.6674 22.8111C68.8059 22.8092 69.8972 22.3559 70.702 21.5506C71.5068 20.7453 71.9593 19.6536 71.9604 18.5151C71.9593 17.3766 71.5068 16.2849 70.702 15.4796C69.8972 14.6743 68.8059 14.221 67.6674 14.2191Z" fill="#1E1E1E"/>
</g>
<defs>
<clipPath id="clip0_1_2110">
<rect width="100" height="30" fill="white"/>
</clipPath>
</defs>
</svg>

<svg xmlns="http://www.w3.org/2000/svg" width="213.333" height="64" fill="none" viewBox="0 0 100 30"><g clip-path="url(#a)"><path fill="#5753F3" d="M30.01 13.43h-9.142l7.917-4.57-1.57-2.72-7.918 4.57 4.57-7.915-2.72-1.57-4.571 7.913V0h-3.142v9.139L8.863 1.225l-2.721 1.57 4.57 7.913L2.796 6.14 1.225 8.86l7.917 4.57H0v3.141h9.141l-7.916 4.57 1.57 2.72 7.918-4.57-4.571 7.915 2.72 1.57 4.572-7.914V30h3.142v-9.334l4.655 8.06 2.551-1.472-4.656-8.062 8.087 4.668 1.571-2.72-7.916-4.57h9.141v-3.14h.001Zm-15.005 5.84a4.27 4.27 0 1 1-.002-8.54 4.27 4.27 0 0 1 .002 8.54Z"/><path fill="#1E1E1E" d="M38.11 25.973V4.027h4.027v21.946H38.11ZM76.741 11.06h3.846v1.82c.818-1.455 2.727-2.244 4.362-2.244 2.03 0 3.665.88 4.422 2.485 1.18-1.82 2.756-2.485 4.725-2.485 2.756 0 5.39 1.667 5.39 5.668v9.67h-3.906v-8.85c0-1.608-.788-2.82-2.636-2.82-1.727 0-2.757 1.334-2.757 2.941v8.73h-3.996v-8.852c0-1.607-.818-2.82-2.636-2.82-1.757 0-2.787 1.305-2.787 2.942v8.73h-4.027V11.06ZM51.24 26.405c-4.538 0-7.824-3.367-7.824-7.889 0-4.45 3.276-7.896 7.824-7.896 4.57 0 7.824 3.478 7.824 7.896 0 4.49-3.288 7.89-7.824 7.89Zm0-12.135a4.25 4.25 0 0 0-4.244 4.247 4.25 4.25 0 0 0 4.244 4.247 4.25 4.25 0 0 0 4.243-4.247 4.25 4.25 0 0 0-4.243-4.247Zm16.427 12.135c-4.538 0-7.824-3.367-7.824-7.889 0-4.45 3.276-7.896 7.824-7.896 4.57 0 7.824 3.478 7.824 7.896 0 4.49-3.29 7.89-7.824 7.89Zm0-12.186a4.3 4.3 0 0 0-4.293 4.296 4.3 4.3 0 0 0 4.293 4.296 4.3 4.3 0 0 0 4.293-4.296 4.3 4.3 0 0 0-4.293-4.296Z"/></g><defs><clipPath id="a"><path fill="#fff" d="M0 0h100v30H0z"/></clipPath></defs></svg>
